svg/folder_multiple_image.svg

<svg xmlns="http://www.w3.org/2000/svg" viewBox="0 0 24 24"><path d="m7 15 4.5-6 3.5 4.5 2.5-3L21 15m1-11h-8l-2-2H6a2 2 0 0 0-2 2v12a2 2 0 0 0 2 2h16a2 2 0 0 0 2-2V6a2 2 0 0 0-2-2M2 6H0v14a2 2 0 0 0 2 2h18v-2H2z"/></svg>

<?xml version="1.0" encoding="UTF-8"?><!DOCTYPE svg PUBLIC "-//W3C//DTD SVG 1.1//EN" "http://www.w3.org/Graphics/SVG/1.1/DTD/svg11.dtd"><svg xmlns="http://www.w3.org/2000/svg" xmlns:xlink="http://www.w3.org/1999/xlink" version="1.1" id="mdi-folder-multiple-image" width="24" height="24" viewBox="0 0 24 24"><path d="M7,15L11.5,9L15,13.5L17.5,10.5L21,15M22,4H14L12,2H6A2,2 0 0,0 4,4V16A2,2 0 0,0 6,18H22A2,2 0 0,0 24,16V6A2,2 0 0,0 22,4M2,6H0V11H0V20A2,2 0 0,0 2,22H20V20H2V6Z" /></svg>
